X: 16704
T: Happy One Step, The
R: hornpipe
M: 4/4
K: Gmajor
d>G B>d- d>G B>d|g>c e>g- g>a g>e|d>G B>d- d>B- B>A|A>G G>E D2 G>B|
d>G B>d- d>G B>d|g>c e>g- g>a g>e|d>G B>G A>G E>D|1 E>G G>G- G2 A>G:|2 E>G G>G- G2 B>d||
b>d b>b- b>d b>d|a>d a>a- a>d a>d|b>d b>b- b>d b>d|c'>d c'>c'- c'>d c'>d|
b>d b>b- b>d b>d|a>d a>a- a>d a>d|b>d b>b- b>d b>d|c'>d b>d- a>d g>e||

